html/images/input/inputBg3.svg

<svg width="80" height="80" viewBox="0 0 80 80" fill="none" xmlns="http://www.w3.org/2000/svg">
<g clip-path="url(#clip0_222_658)">
<path d="M74.368 0H5.632C2.524 0 0 2.524 0 5.632V74.364C0 77.476 2.524 79.996 5.632 79.996H74.364C77.476 79.996 79.996 77.476 79.996 74.364V5.632C79.996 2.52 77.472 0 74.364 0H74.368Z" fill="url(#paint0_linear_222_658)"/>
<g filter="url(#filter0_di_222_658)">
<path d="M68.1765 7H10.8235C8.71185 7 7 8.71185 7 10.8235V68.1765C7 70.2881 8.71185 72 10.8235 72H68.1765C70.2881 72 72 70.2881 72 68.1765V10.8235C72 8.71185 70.2881 7 68.1765 7Z" fill="white"/>
</g>
</g>
<defs>
<filter id="filter0_di_222_658" x="7" y="7" width="69" height="69" filterUnits="userSpaceOnUse" color-interpolation-filters="sRGB">
<feFlood flood-opacity="0" result="BackgroundImageFix"/>
<feColorMatrix in="SourceAlpha" type="matrix" values="0 0 0 0 0 0 0 0 0 0 0 0 0 0 0 0 0 0 127 0" result="hardAlpha"/>
<feOffset dx="4" dy="4"/>
<feComposite in2="hardAlpha" operator="out"/>
<feColorMatrix type="matrix" values="0 0 0 0 0 0 0 0 0 0 0 0 0 0 0 0 0 0 0.25 0"/>
<feBlend mode="normal" in2="BackgroundImageFix" result="effect1_dropShadow_222_658"/>
<feBlend mode="normal" in="SourceGraphic" in2="effect1_dropShadow_222_658" result="shape"/>
<feColorMatrix in="SourceAlpha" type="matrix" values="0 0 0 0 0 0 0 0 0 0 0 0 0 0 0 0 0 0 127 0" result="hardAlpha"/>
<feOffset dx="10" dy="10"/>
<feGaussianBlur stdDeviation="1"/>
<feComposite in2="hardAlpha" operator="arithmetic" k2="-1" k3="1"/>
<feColorMatrix type="matrix" values="0 0 0 0 0 0 0 0 0 0 0 0 0 0 0 0 0 0 0.15 0"/>
<feBlend mode="normal" in2="shape" result="effect2_innerShadow_222_658"/>
</filter>
<linearGradient id="paint0_linear_222_658" x1="0.203998" y1="79.572" x2="80.38" y2="-0.155998" gradientUnits="userSpaceOnUse">
<stop offset="1" stop-color="#2E7BED"/>
</linearGradient>
<clipPath id="clip0_222_658">
<rect width="80" height="80" fill="white"/>
</clipPath>
</defs>
</svg>

<?xml version="1.0" encoding="UTF-8"?>
<svg id="_레이어_1" data-name="레이어 1" xmlns="http://www.w3.org/2000/svg" xmlns:xlink="http://www.w3.org/1999/xlink" viewBox="0 0 80 80">
  <defs>
    <style>
      .cls-1 {
        fill: #2e7bed;
      }

      .cls-1, .cls-2, .cls-3, .cls-4 {
        stroke-width: 0px;
      }

      .cls-2 {
        fill: none;
      }

      .cls-5 {
        clip-path: url(#clippath);
      }

      .cls-3 {
        fill: url(#_무제_그라디언트);
      }

      .cls-4 {
        fill: #fff;
      }
    </style>
    <clipPath id="clippath">
      <rect class="cls-2" width="80" height="80"/>
    </clipPath>
    <linearGradient id="_무제_그라디언트" data-name="무제 그라디언트" x1=".2" y1="2.43" x2="80.38" y2="82.16" gradientTransform="translate(0 82) scale(1 -1)" gradientUnits="userSpaceOnUse">
      <stop offset="0" stop-color="#ffde24"/>
      <stop offset=".46" stop-color="#ff4a72"/>
      <stop offset="1" stop-color="#9a3bbb"/>
    </linearGradient>
  </defs>
  <g class="cls-5">
    <g>
      <path class="cls-3" d="M74.37,0H5.63C2.52,0,0,2.52,0,5.63v68.73c0,3.11,2.52,5.63,5.63,5.63h68.73c3.11,0,5.63-2.52,5.63-5.63V5.63c0-3.11-2.52-5.63-5.63-5.63h0Z"/>
      <g>
        <path class="cls-4" d="M10.82,8.5h57.35c1.28,0,2.32,1.04,2.32,2.32v57.35c0,1.28-1.04,2.32-2.32,2.32H10.82c-1.28,0-2.32-1.04-2.32-2.32V10.82c0-1.28,1.04-2.32,2.32-2.32Z"/>
        <path class="cls-1" d="M68.18,10c.45,0,.82.37.82.82v57.35c0,.45-.37.82-.82.82H10.82c-.45,0-.82-.37-.82-.82V10.82c0-.45.37-.82.82-.82h57.35M68.18,7H10.82c-2.11,0-3.82,1.71-3.82,3.82v57.35c0,2.11,1.71,3.82,3.82,3.82h57.35c2.11,0,3.82-1.71,3.82-3.82V10.82c0-2.11-1.71-3.82-3.82-3.82h0Z"/>
      </g>
    </g>
  </g>
</svg>
